src/assets/desktop/p99.svg

<svg width="206" height="48" viewBox="0 0 206 48" fill="none" xmlns="http://www.w3.org/2000/svg">
<path d="M78.7349 15.6387L77.788 16.3983C77.342 16.8512 77.1228 17.2655 77.1228 17.6492V18.1864C77.0916 18.2708 77.0681 18.6161 77.0681 19.23C75.8081 17.6646 73.969 16.8742 71.5587 16.8742C69.344 16.8742 67.5597 17.4344 66.2058 18.5624C64.7658 19.7595 64.038 21.4248 64.038 23.5504C64.038 25.4766 64.578 27.1111 65.6501 28.4386C66.8318 29.9044 68.4205 30.6411 70.4239 30.6411C71.6996 30.6411 72.8187 30.3648 73.7812 29.8046C74.9864 29.0986 75.589 28.3082 75.589 27.4257C75.589 27.2569 75.5655 27.0036 75.5185 26.6737C75.4716 26.3437 75.4481 26.0905 75.4481 25.9216C75.4481 25.7144 75.4716 25.5302 75.5108 25.3538C75.2603 25.4458 74.9081 25.4919 74.462 25.4919C74.1491 25.4919 73.6873 25.4074 73.0768 25.2387C72.4664 25.0698 72.0047 24.9854 71.6917 24.9854C71.2691 24.9854 70.8231 25.0621 70.3535 25.2156L68.7022 25.9216C69.2501 25.1849 69.6569 24.6938 69.923 24.4559C70.5021 23.9418 71.1674 23.6809 71.9187 23.6809C72.2865 23.6809 72.9439 23.8037 73.883 24.0569C73.9768 24.0799 74.1412 24.1183 74.3682 24.1567C74.4542 24.172 74.6421 24.1797 74.9159 24.1797C75.4716 24.1797 76.0115 24.0339 76.5281 23.7422C76.6142 23.6886 77.0367 23.3892 77.8037 22.8291L77.7254 22.9595L77.8584 22.8827C77.7567 22.9595 77.5533 23.2281 77.2559 23.6962C77.0289 24.195 76.9115 24.8473 76.9115 25.653C76.9115 26.359 77.0837 27.656 77.4202 29.5667C75.6203 31.1015 73.1787 31.8689 70.0874 31.8689C67.3483 31.8689 65.1963 31.1552 63.6311 29.7355C62.019 28.2699 61.2207 26.2056 61.2207 23.5504C61.2207 20.9336 62.3163 18.9154 64.5154 17.4803C66.3936 16.2526 68.7414 15.6387 71.543 15.6387H78.7349Z" fill="white"/>
<path d="M92.3145 28.2475C91.3597 29.8052 90.8824 31.1635 90.8824 32.3223C90.0607 31.7697 88.3937 31.5241 85.8817 31.5625L80.8966 31.6546C81.4132 31.0176 81.7105 30.5726 81.7887 30.304L81.867 29.2527V18.9236C81.867 18.3635 81.7261 17.8186 81.4366 17.2738C81.0452 16.5448 80.4505 16.0076 79.668 15.6699H84.2695V30.1122C84.293 30.1352 84.3947 30.1735 84.5591 30.2273C84.8799 30.327 85.2948 30.3808 85.7956 30.3808C88.2294 30.3808 90.405 29.6671 92.3145 28.2475Z" fill="white"/>
<path d="M104.545 31.0791C104.388 31.363 104.185 31.5011 103.942 31.5011H93.7372L93.252 31.0483L94.3398 30.4575C94.5745 30.2196 94.7232 30.0278 94.7858 29.8819C94.7858 29.7668 94.8015 29.598 94.825 29.3678L94.8406 29.3447V17.7419C94.8406 17.3735 94.6684 17.0205 94.3319 16.6906L93.2441 16.0997L93.7293 15.647H103.934C104.177 15.647 104.381 15.785 104.537 16.069C104.138 16.7059 103.934 17.1356 103.934 17.3659L104.052 18.2407L103.262 17.9951C102.447 17.3812 101.422 16.9669 100.178 16.7519L99.5208 16.6983H98.8551H97.7675L97.2431 16.775V21.7783H103.973L103.003 23.3822L101.68 24.6177C100.883 23.5664 99.6696 22.9985 98.0337 22.9294C97.9867 22.9294 97.8927 22.9218 97.7283 22.9141C97.384 22.8987 97.2274 22.9371 97.2431 23.0445V30.3654L97.7675 30.4191H98.8551H99.5286L100.186 30.3654C101.43 30.1506 102.463 29.7438 103.277 29.1452L104.067 28.8997L103.95 29.7745C103.942 30.0047 104.146 30.4421 104.545 31.0791Z" fill="white"/>
<path d="M121.91 30.6108C121.91 31.1403 121.785 31.4473 121.527 31.5394L121.293 31.4857C121.324 31.501 121.387 31.547 121.473 31.6162C121.167 31.4703 120.807 31.171 120.401 30.7183L109.678 18.7471V27.5029C109.678 28.2856 109.906 29.0146 110.36 29.6977C110.664 30.1581 111.205 30.7413 111.971 31.4473H107.55C108.138 30.4804 108.426 29.5978 108.426 28.8075V17.3734L107.339 16.7289C107.041 16.6521 106.682 16.537 106.267 16.3834C106.149 16.3221 105.883 16.1226 105.469 15.7773L106.58 15.6392H110.125L120.658 27.6947V18.9466C120.658 18.5782 120.627 18.3326 120.564 18.2022C120.509 18.0257 120.393 17.7802 120.197 17.4655L118.765 16.3759V15.6392H121.902V30.6108H121.91Z" fill="white"/>
<path d="M137.593 25.8304C137.593 28.0942 136.264 29.698 133.595 30.6419C132.429 31.0563 131.075 31.3095 129.518 31.4169L129.541 31.4553H128.915C128.782 31.4553 128.586 31.4553 128.312 31.4553C128.038 31.4553 127.842 31.4553 127.71 31.4553H127.107H126.645H125.534C125.98 31.0103 126.231 30.6726 126.286 30.4423L126.388 29.2606V18.7934C126.388 18.1489 126.192 17.5963 125.808 17.1205C125.354 16.5757 125.049 16.2994 124.893 16.2994L124.869 15.6855L125.276 15.6625C126.466 15.5858 127.373 15.839 128.007 16.4376L128.281 16.875C129.596 15.8467 131.012 15.3325 132.531 15.3325C133.579 15.3325 134.456 15.5781 135.167 16.0769C135.974 16.6371 136.373 17.4122 136.373 18.4021C136.373 19.5608 135.911 20.6121 134.996 21.5637C136.725 22.4846 137.593 23.9119 137.593 25.8304ZM133.556 18.6016C133.556 17.4275 132.882 16.8366 131.528 16.8366C130.95 16.8366 130.409 16.9364 129.909 17.1359C129.243 17.3968 128.884 17.7498 128.814 18.2025V18.3714V20.4663C129.486 20.474 130.59 20.5508 132.131 20.6813C132.288 20.6965 132.562 20.7426 132.945 20.8193C133.352 20.1978 133.556 19.4611 133.556 18.6016ZM134.792 25.8764C134.792 24.4644 134.142 23.3363 132.851 22.5076C131.795 21.8323 130.676 21.4947 129.51 21.4947C129.055 21.4947 128.821 21.5331 128.814 21.6098V30.0434C128.814 30.1814 128.837 30.3119 128.876 30.4423C128.908 30.45 128.947 30.45 128.994 30.4423C129.196 30.4116 129.377 30.3887 129.533 30.3887C130.754 30.3887 131.865 30.074 132.851 29.4371C134.142 28.6084 134.792 27.4265 134.792 25.8764Z" fill="white"/>
<path d="M158.309 23.5356C158.309 26.1678 157.346 28.2551 155.421 29.7899C153.667 31.1788 151.563 31.8771 149.082 31.8771C146.57 31.8771 144.457 31.1788 142.743 29.7899C140.818 28.2397 139.855 26.1524 139.855 23.5356C139.855 20.9112 140.818 18.8316 142.743 17.2968C144.48 15.9078 146.593 15.2095 149.082 15.2095C151.586 15.2095 153.691 15.9078 155.421 17.2968C157.346 18.8546 158.309 20.9342 158.309 23.5356ZM155.507 23.5356C155.507 21.2796 154.841 19.4991 153.503 18.1946C152.306 17.0205 150.835 16.4296 149.097 16.4296C147.032 16.4296 145.427 17.1279 144.285 18.517C143.22 19.7985 142.688 21.4714 142.688 23.5356C142.688 25.5846 143.228 27.2575 144.3 28.5467C145.451 29.9433 147.055 30.6417 149.097 30.6417C151.14 30.6417 152.744 29.9433 153.895 28.5467C154.967 27.2498 155.507 25.5846 155.507 23.5356Z" fill="white"/>
<path d="M206 28.2475C205.045 29.8052 204.568 31.1635 204.568 32.3223C203.746 31.7697 202.079 31.5241 199.567 31.5625L194.582 31.6546C195.098 31.0176 195.396 30.5726 195.474 30.304L195.552 29.2527V18.9236C195.552 18.3635 195.411 17.8186 195.122 17.2738C194.731 16.5448 194.136 16.0076 193.354 15.6699H197.955V30.1122C197.978 30.1352 198.08 30.1735 198.245 30.2273C198.566 30.327 198.98 30.3808 199.481 30.3808C201.915 30.3808 204.09 29.6671 206 28.2475Z" fill="white"/>
<path d="M158.23 15.6011L159.381 16.3991C159.803 16.6908 160.116 17.1512 160.335 17.7881L160.609 18.9469C161.329 18.1488 161.854 17.65 162.197 17.4428C162.699 17.1435 163.403 16.99 164.327 16.99H166.04H166.064V29.2452L165.985 30.2965C165.899 30.5958 165.673 30.9795 165.305 31.4399H169.241C168.858 31.0025 168.631 30.6648 168.56 30.4346C168.497 30.2351 168.466 29.8361 168.466 29.2375V16.99H170.188C171.104 16.99 171.816 17.1435 172.317 17.4428C172.661 17.65 173.185 18.1488 173.905 18.9469L174.18 17.7881C174.398 17.1512 174.719 16.6908 175.134 16.3991L176.284 15.6011H158.23Z" fill="white"/>
<path d="M191.905 30.0586C191.475 29.5599 191.013 28.8308 190.512 27.8716C189.879 26.6514 188.971 24.7023 187.766 22.0088C186.622 19.4534 185.691 17.5042 184.972 16.1689C184.752 15.7699 184.259 15.5934 183.5 15.6395L180.972 15.8159C181.27 16.0078 181.568 16.192 181.88 16.3685C182.436 16.7905 182.718 17.2586 182.718 17.7728C182.718 17.8572 182.71 17.9416 182.695 18.0337C180.886 21.5867 179.556 24.1575 178.719 25.7612C176.95 29.1531 175.784 31.0485 175.205 31.4476C175.205 31.4476 178.163 31.4476 178.343 31.4476C177.67 31.11 177.976 30.1431 177.976 30.1431L180.104 26.1065H186.975L187.937 28.0634C188.611 29.4371 189.08 30.5651 189.354 31.4553H193.776C193.04 31.1177 192.414 30.6496 191.905 30.0586ZM183.539 19.5915L186.091 24.38L186.381 24.9325H180.714L183.539 19.5915Z" fill="white"/>
<path d="M24.4714 48C10.9796 48 0 37.2336 0 23.9962C0 10.7587 10.9796 0 24.4714 0C37.9632 0 48.9428 10.7664 48.9428 23.9962C48.9428 37.2259 37.971 48 24.4714 48ZM24.4714 1.7036C11.9344 1.7036 1.72951 11.7103 1.72951 24.0038C1.72951 36.2974 11.9344 46.3041 24.4714 46.3041C37.0084 46.3041 47.2133 36.2974 47.2133 24.0038C47.2133 11.7026 37.0162 1.7036 24.4714 1.7036Z" fill="white"/>
<path d="M10.3066 43.2729V41.9991C18.469 41.9991 21.075 37.9779 24.0957 33.3276C27.8834 27.4878 32.1877 20.8652 48.215 20.8652V22.1391C41.3517 22.1391 36.1475 23.3823 32.3207 25.953C28.9634 28.2015 27.0461 31.1559 25.1914 34.0106C22.1001 38.7761 19.1811 43.2729 10.3066 43.2729Z" fill="white"/>
<path d="M29.199 47.0101L28.1816 46.212C32.2276 41.247 37.2675 35.0773 45.7741 33.1895L46.0637 34.4327C37.9953 36.2207 33.1198 42.1986 29.199 47.0101Z" fill="white"/>
<path d="M26.1625 31.9147C20.4184 27.249 14.4785 22.4145 0.736328 22.4145V21.1406C14.9402 21.1406 21.3418 26.3435 26.992 30.9325L26.1625 31.9147Z" fill="white"/>
<path d="M17.2011 41.7152C16.8098 41.4619 16.4342 41.2088 16.0585 40.9555C12.4509 38.5459 9.59443 36.6428 3.4668 35.7833L3.64679 34.5171C10.0718 35.415 13.1865 37.4946 16.7864 39.8964C17.1542 40.142 17.5298 40.3953 17.9211 40.6485L17.2011 41.7152Z" fill="white"/>
<path d="M22.3747 37.4254L22.2885 37.3564C16.8653 33.1741 12.1854 29.5597 0.798828 29.1684L0.845783 27.8945C12.655 28.3012 17.7261 32.2149 23.0947 36.3511L23.1807 36.4201L22.3747 37.4254Z" fill="white"/>
<path d="M18.8523 46.849L18.4453 45.6365C23.4852 44.0173 26.0051 40.6254 28.6737 37.0417C32.4771 31.9387 36.4134 26.6514 47.8314 26.6514V27.9252C37.0708 27.9252 33.5022 32.7137 29.7224 37.7861C27.0459 41.3852 24.2834 45.0993 18.8523 46.849Z" fill="white"/>
<path d="M37.282 23.3974H35.5446C35.5446 21.1106 35.4273 19.7753 32.9934 18.8852C29.8553 17.7418 28.2744 17.1662 28.2744 15.7235C28.2744 15.1634 28.2432 12.1322 28.2275 10.3211C28.2197 9.50771 28.2118 8.9245 28.2118 8.87079C28.2118 8.34896 28.5562 8.04968 28.8614 7.8655C28.8614 7.85016 28.8614 7.83481 28.8614 7.81946H20.0807C20.0807 7.83481 20.0807 7.85016 20.0807 7.8655C20.386 8.04201 20.7303 8.34896 20.7303 8.87079C20.7303 8.91683 20.7225 9.50771 20.7147 10.3211C20.699 12.1322 20.6678 15.1711 20.6678 15.7235C20.6678 17.1662 19.0947 17.7418 15.9487 18.8852C13.5149 19.7676 13.3975 21.1106 13.3975 23.3974H11.6602C11.6602 21.2718 11.6602 18.632 15.3383 17.2967C16.7548 16.7825 18.6878 16.0765 18.9226 15.7082C18.9226 15.1019 18.9539 12.1015 18.9695 10.3058C18.9773 9.86073 18.9773 9.49237 18.9773 9.23145C17.96 8.70963 18.4374 6.96766 18.4452 6.95231C18.5939 6.47654 19.0165 6.2233 19.3686 6.14657L19.4625 6.12354H29.464L29.5579 6.14657C29.9022 6.2233 30.3327 6.47654 30.4813 6.95999C30.4891 6.97533 30.9665 8.7173 29.9492 9.23913C29.9492 9.49237 29.957 9.86841 29.957 10.3135C29.9727 12.1091 30.0039 15.1096 30.0039 15.7159C30.2387 16.0842 32.1717 16.7902 33.5882 17.3044C37.282 18.632 37.282 21.2718 37.282 23.3974Z" fill="white"/>
</svg>

<svg xmlns="http://www.w3.org/2000/svg" width="206" height="48" fill="none"><path fill="#fff" d="m78.735 15.639-.947.76c-.446.452-.665.866-.665 1.25v.537c-.031.085-.055.43-.055 1.044-1.26-1.565-3.099-2.356-5.51-2.356q-3.321-.002-5.352 1.688c-1.44 1.197-2.168 2.863-2.168 4.988 0 1.927.54 3.561 1.612 4.889 1.182 1.465 2.77 2.202 4.774 2.202q1.914.002 3.357-.836 1.808-1.057 1.808-2.38c0-.168-.023-.421-.07-.751a6 6 0 0 1-.07-.752c0-.208.023-.392.062-.568-.25.092-.603.138-1.049.138q-.47 0-1.385-.253-.915-.255-1.385-.254-.635 0-1.338.23l-1.652.707q.822-1.107 1.221-1.466.869-.773 1.996-.775.554-.002 1.964.376c.094.023.258.061.485.1.086.015.274.023.548.023.556 0 1.096-.146 1.612-.438.086-.053.509-.353 1.276-.913l-.079.13.133-.076c-.101.076-.305.345-.602.813q-.342.748-.344 1.957c0 .706.172 2.003.508 3.914-1.8 1.535-4.241 2.302-7.333 2.302q-4.108-.002-6.456-2.134c-1.612-1.465-2.41-3.53-2.41-6.185 0-2.616 1.095-4.635 3.294-6.07 1.879-1.227 4.226-1.841 7.028-1.841zm13.58 12.609q-1.433 2.335-1.433 4.074c-.821-.552-2.488-.798-5-.76l-4.985.093c.516-.637.813-1.082.892-1.351l.078-1.051v-10.33c0-.56-.14-1.104-.43-1.65a3.54 3.54 0 0 0-1.769-1.603h4.601v14.442c.024.023.126.062.29.115.32.1.736.154 1.237.154 2.433 0 4.609-.714 6.518-2.134m12.231 2.833q-.237.423-.603.421H93.737l-.485-.453 1.088-.59q.351-.357.446-.576c0-.115.016-.284.039-.514l.016-.023V17.742c0-.369-.173-.722-.51-1.051l-1.087-.591.485-.453h10.205c.243 0 .447.138.603.422-.399.637-.603 1.067-.603 1.297l.118.875-.79-.246c-.815-.614-1.84-1.028-3.084-1.243l-.657-.054h-1.754l-.524.077v5.003h6.73l-.97 1.604-1.323 1.236c-.797-1.052-2.01-1.62-3.646-1.689-.047 0-.141-.007-.306-.015-.344-.015-.5.023-.485.13v7.321l.525.054h1.761l.657-.054q1.868-.321 3.091-1.22l.79-.245-.117.875c-.008.23.196.667.595 1.304m17.365-.469c0 .53-.125.837-.383.93l-.234-.054c.031.015.094.061.18.13q-.461-.219-1.072-.898l-10.723-11.97v8.755c0 .783.228 1.512.682 2.195.304.46.845 1.043 1.611 1.75h-4.421c.588-.968.876-1.85.876-2.64V17.373l-1.087-.644a11 11 0 0 1-1.072-.346q-.177-.089-.798-.606l1.111-.138h3.545l10.533 12.056v-8.748c0-.369-.031-.614-.094-.745-.055-.176-.171-.422-.367-.737l-1.432-1.09v-.736h3.137v14.972zm15.683-4.78c0 2.264-1.329 3.868-3.998 4.812-1.166.414-2.52.668-4.077.775l.023.038h-4.007q.67-.667.752-1.013l.102-1.181V18.793c0-.644-.196-1.197-.58-1.672-.454-.545-.759-.822-.915-.822l-.024-.614.407-.023c1.19-.076 2.097.177 2.731.776l.274.437q1.972-1.543 4.25-1.543 1.57-.002 2.636.745c.807.56 1.206 1.335 1.206 2.325 0 1.159-.462 2.21-1.377 3.162 1.729.92 2.597 2.348 2.597 4.266m-4.037-7.228q.001-1.764-2.028-1.765-.868 0-1.619.299c-.666.26-1.025.614-1.095 1.067v2.263c.672.008 1.776.085 3.317.215q.238.023.814.138.61-.93.611-2.217m1.236 7.274c0-1.412-.65-2.54-1.941-3.368-1.056-.676-2.175-1.013-3.341-1.013q-.684 0-.696.115v8.433q.002.205.062.4a.3.3 0 0 0 .118 0 4 4 0 0 1 .539-.054c1.221 0 2.332-.315 3.318-.952 1.291-.829 1.941-2.01 1.941-3.56m23.517-2.341c0 2.632-.963 4.72-2.888 6.254-1.754 1.389-3.858 2.087-6.339 2.087q-3.768-.002-6.339-2.087c-1.925-1.55-2.888-3.638-2.888-6.254q0-3.937 2.888-6.24 2.606-2.084 6.339-2.086c2.504 0 4.609.698 6.339 2.087q2.888 2.336 2.888 6.239m-2.802 0q.001-3.384-2.004-5.341-1.797-1.764-4.406-1.765-3.098.002-4.812 2.087-1.597 1.922-1.597 5.019c0 2.049.54 3.721 1.612 5.01 1.151 1.397 2.755 2.096 4.797 2.096 2.043 0 3.647-.699 4.798-2.095 1.072-1.297 1.612-2.962 1.612-5.011M206 28.248q-1.432 2.335-1.432 4.074c-.822-.552-2.489-.798-5.001-.76l-4.985.093c.516-.637.814-1.082.892-1.351l.078-1.051v-10.33c0-.56-.141-1.104-.43-1.65-.391-.728-.986-1.265-1.768-1.603h4.601v14.442c.023.023.125.062.29.115q.483.152 1.236.154 3.653-.002 6.519-2.134m-47.77-12.646 1.151.798c.422.292.735.752.954 1.39l.274 1.158c.72-.798 1.245-1.297 1.588-1.504.502-.3 1.206-.453 2.13-.453h1.737v12.255l-.079 1.052c-.086.299-.312.683-.68 1.143h3.936c-.383-.437-.61-.775-.681-1.005q-.094-.3-.094-1.197V16.99h1.722c.916 0 1.628.154 2.129.453.344.207.868.706 1.588 1.504l.275-1.159c.218-.637.539-1.097.954-1.389l1.15-.798zm33.675 14.458q-.643-.75-1.393-2.187c-.633-1.22-1.541-3.17-2.746-5.863q-1.716-3.836-2.794-5.84-.332-.6-1.472-.53l-2.528.177c.298.192.596.376.908.553q.836.633.838 1.404 0 .125-.023.26a882 882 0 0 1-3.976 7.728c-1.769 3.392-2.935 5.288-3.514 5.687h3.138c-.673-.338-.367-1.305-.367-1.305l2.128-4.036h6.871l.962 1.956c.674 1.374 1.143 2.502 1.417 3.392h4.422a5.4 5.4 0 0 1-1.871-1.396m-8.366-10.468 2.552 4.789.29.553h-5.667zM24.471 48C10.98 48 0 37.234 0 23.996 0 10.76 10.98 0 24.471 0c13.492 0 24.472 10.766 24.472 23.996S37.97 48 24.47 48m0-46.296c-12.537 0-22.741 10.006-22.741 22.3 0 12.293 10.204 22.3 22.741 22.3s22.742-10.007 22.742-22.3c0-12.301-10.197-22.3-22.742-22.3"/><path fill="#fff" d="M10.307 43.273v-1.274c8.162 0 10.768-4.021 13.789-8.671 3.787-5.84 8.092-12.463 24.119-12.463v1.274c-6.863 0-12.068 1.243-15.894 3.814-3.358 2.249-5.275 5.203-7.13 8.058-3.09 4.765-6.01 9.262-14.884 9.262m18.892 3.737-1.017-.798c4.046-4.965 9.086-11.135 17.592-13.022l.29 1.243C37.995 36.22 33.12 42.199 29.199 47.01"/><path fill="#fff" d="M26.163 31.915c-5.745-4.666-11.684-9.5-25.427-9.5V21.14c14.204 0 20.606 5.203 26.256 9.792zm-8.962 9.8a73 73 0 0 1-1.143-.76c-3.607-2.41-6.464-4.312-12.591-5.172l.18-1.266c6.425.898 9.54 2.978 13.14 5.38q.549.37 1.134.752zm5.174-4.29-.087-.069c-5.423-4.182-10.103-7.796-21.49-8.188l.048-1.273c11.809.406 16.88 4.32 22.249 8.456l.086.07zm-3.523 9.424-.407-1.212c5.04-1.62 7.56-5.012 10.229-8.595 3.803-5.103 7.74-10.39 19.157-10.39v1.273c-10.76 0-14.329 4.789-18.109 9.861-2.676 3.6-5.439 7.313-10.87 9.063"/><path fill="#fff" d="M37.282 23.397h-1.737c0-2.286-.118-3.622-2.552-4.512-3.138-1.143-4.719-1.719-4.719-3.162 0-.56-.03-3.59-.047-5.402-.007-.813-.015-1.396-.015-1.45 0-.522.344-.821.65-1.006V7.82H20.08v.046c.305.177.65.484.65 1.006 0 .046-.009.637-.016 1.45-.016 1.811-.047 4.85-.047 5.403 0 1.442-1.573 2.018-4.72 3.161-2.433.883-2.55 2.226-2.55 4.512H11.66c0-2.125 0-4.765 3.678-6.1 1.417-.515 3.35-1.22 3.585-1.589 0-.606.03-3.607.047-5.402.007-.445.007-.814.007-1.075-1.017-.521-.54-2.263-.532-2.279.149-.475.572-.729.924-.805l.093-.023h10.002l.094.023c.344.076.775.33.923.813.008.015.485 1.757-.532 2.28 0 .252.008.628.008 1.073.016 1.796.047 4.797.047 5.403.235.368 2.168 1.074 3.584 1.588 3.694 1.328 3.694 3.968 3.694 6.093"/></svg>
